X:1
T:Up and warn a' Willie
M:4/4
L:1/16
K:G
 G G3 B3- G c4 c e3| G G3 B3- G A6 B2| G3- A B3 Gc c3 c3 e| d3 c B3 A G4 G- d3|\
 d| g3 e d3 B c3 c c3 e| g3 e d3 B A4 A e- e z g g3| e d3 B c3 d e3 gd c3|\
 B3 A| G4 G4 d3| G G3 B3- G c4 c e3| G- G3 B3 G A6 B2| G3 A B3 Gc c3 c3 e|\
 d3 c B3| G4 G d2||
